UI/Devices-Sensors/SVG/device-group-smart-filter_solid_16px.svg

<svg width="16" height="16" viewBox="0 0 16 16" fill="none" xmlns="http://www.w3.org/2000/svg">
<path d="M5 12V14C5 14.2652 5.10536 14.5196 5.29289 14.7071C5.48043 14.8946 5.73478 15 6 15H10C10.2652 15 10.5196 14.8946 10.7071 14.7071C10.8946 14.5196 11 14.2652 11 14V12H5ZM13 10V12H14C14.2652 12 14.5196 11.8946 14.7071 11.7071C14.8946 11.5196 15 11.2652 15 11V8L13 10ZM1 8V11C1 11.2652 1.10536 11.5196 1.29289 11.7071C1.48043 11.8946 1.73478 12 2 12H3V10H7V8H1ZM3 3.05L3.71 3.76C4.65769 2.80477 5.90298 2.20153 7.24 2.05L7.76 1.05C5.99256 1.0924 4.30794 1.80774 3.05 3.05H3ZM5.17 5.17L5.88 5.88C6.1967 5.56636 6.5793 5.32724 7 5.18V4.18C6.31469 4.3463 5.68419 4.68739 5.17 5.17ZM9 6V4L10.5 1H13L11.5 4H14V6L11 9V6H9Z" fill="#0F1621"/>
</svg>

<svg xmlns="http://www.w3.org/2000/svg" width="16" height="16" viewBox="0 0 16 16"><rect width="16" height="16" style="fill:none"/><path d="M5,12v2a1,1,0,0,0,1,1h4a1,1,0,0,0,1-1V12Zm8-2v2h1a1,1,0,0,0,1-1V8ZM1,8v3a1,1,0,0,0,1,1H3V10H7V8Zm2-4.95.71.71A5.91,5.91,0,0,1,7.24,2.05l.52-1A6.94,6.94,0,0,0,3.05,3.05ZM5.17,5.17l.71.71A3,3,0,0,1,7,5.18v-1A4.08,4.08,0,0,0,5.17,5.17ZM9,6V4l1.5-3H13L11.5,4H14V6L11,9V6Z"/></svg>
